icons/hicolor/scalable/actions/abm-100-buds-symbolic.svg

<svg height="16" viewBox="0 0 16 16" width="16" xmlns="http://www.w3.org/2000/svg"><g fill="#2e3436"><g><circle cx="10.081377" cy="14.705316" r="1.294684"/><circle cx="1.851777" cy="14.705316" r="1.294684"/><circle cx="5.966577" cy="14.705316" r="1.294684"/><circle cx="14.196177" cy="14.705316" r="1.294684"/></g><path d="m4.7788278 2.0000096c-.4651883-.0018872-.910484.273877-1.1067498.7418959l-.8657414 1.9925427c-.2616884.6038955.0204447 1.308599.62434 1.5702873.6038955.2616885 1.3082063-.0401037 1.5698941-.6439988l.8857935-1.9929357c.2616875-.6038955-.0199733-1.3085992-.643999-1.5702874-.1509742-.0654217-.3084748-.096875-.4635374-.097504zm6.4596442 0c-.15349.000629-.309418.0320823-.460393.097504-.603895.2616882-.906079.9865217-.644391 1.5702874l.885793 1.9929357c.241558.6038951.925817.9056873 1.549843.6439988.603895-.2616883.906079-.9663918.644391-1.5702873l-.865742-1.9925427c-.211363-.4680189-.649031-.7437831-1.109501-.7418959zm-4.8689129 1.5266464c-.0201303.1006491-.060389.2016134-.1006487.3223924l-.8857936 1.9925427c-.3623371.8051942-1.3083636 1.1878975-2.1336876.8456906-.8051936-.3623373-1.1877406-1.2482888-.8857927-2.0534828-.4025973.4831163-.4831954 1.2081074-.1812475 2.0334309.5435058 1.5097393 1.9326262 1.811453 3.2813264 1.2679465l.8252458-.321999c1.1272716-.4227274 1.6505702-1.4696398 1.3284926-2.576781-.2214278-.7448047-.7849076-1.1071433-1.2478947-1.5097403zm3.2809336.0204443c-.5032468.3824671-1.0465176.7444913-1.2679465 1.489296-.3220776 1.1071412.201221 2.1539751 1.3284926 2.5968318l.8252462.3220001c1.368829.5233761 2.73782.2417927 3.281327-1.2679465.301947-.825324.201219-1.549922-.181248-2.0330385.301947.805194-.080599 1.690752-.885793 2.0530893-.805194.3422079-1.751299-.0401037-2.113637-.8452971l-.885793-1.9929356c-.0402593-.1006495-.080519-.2012203-.1006483-.3219995zm4.6904163 1.6103896c.100649.5636358.060547 1.1069859-.140751 1.6504923-.301948.8454537-.885715 1.429379-1.61039 1.6709372.342207.3019473.764778.4627505 1.247895.4627505 1.046752 0 1.912337-.8655066 1.912337-1.9323892 0-.8857134-.603897-1.6303624-1.409091-1.8517908zm-12.6818182.0200514c-.80519408.2214283-1.40909082.9660779-1.40909082 1.8517902 0 1.0668836.84545562 1.9323902 1.91233782 1.9323902.4831166 0 .925817-.1809336 1.2478946-.4627515-.7246748-.2616875-1.288312-.8254039-1.6103895-1.690988-.2012986-.5636358-.2414014-1.1070648-.1407521-1.6304409z" stroke-width=".201298"/></g></svg>

<?xml version="1.0" encoding="UTF-8" standalone="no"?>
<svg
   height="16"
   viewBox="0 0 16 16"
   width="16"
   version="1.1"
   id="svg5"
   sodipodi:docname="abm-100-airpod3-symbolic.svg"
   inkscape:version="1.3.2 (091e20ef0f, 2023-11-25)"
   xmlns:inkscape="http://www.inkscape.org/namespaces/inkscape"
   xmlns:sodipodi="http://sodipodi.sourceforge.net/DTD/sodipodi-0.dtd"
   xmlns="http://www.w3.org/2000/svg"
   xmlns:svg="http://www.w3.org/2000/svg">
  <defs
     id="defs5" />
  <sodipodi:namedview
     id="namedview5"
     pagecolor="#ffffff"
     bordercolor="#000000"
     borderopacity="0.25"
     inkscape:showpageshadow="2"
     inkscape:pageopacity="0.0"
     inkscape:pagecheckerboard="0"
     inkscape:deskcolor="#d1d1d1"
     inkscape:zoom="72.8125"
     inkscape:cx="7.993133"
     inkscape:cy="8"
     inkscape:window-width="2560"
     inkscape:window-height="1371"
     inkscape:window-x="0"
     inkscape:window-y="32"
     inkscape:window-maximized="1"
     inkscape:current-layer="svg5" />
  <g
     fill="#2e3436"
     id="g5">
    <g
       id="g4">
      <circle
         cx="10.081377"
         cy="14.705316"
         r="1.294684"
         id="circle1" />
      <circle
         cx="1.851777"
         cy="14.705316"
         r="1.294684"
         id="circle2" />
      <circle
         cx="5.966577"
         cy="14.705316"
         r="1.294684"
         id="circle3" />
      <circle
         cx="14.196177"
         cy="14.705316"
         r="1.294684"
         id="circle4" />
    </g>
  </g>
  <path
     id="path2"
     d="M 4.7788278,2.0000096 C 4.3136395,1.9981224 3.8683438,2.2738866 3.672078,2.7419055 L 2.8063366,4.7344482 C 2.5446482,5.3383437 2.8267813,6.0430472 3.4306766,6.3047355 4.0345721,6.566424 4.7388829,6.2646318 5.0005707,5.6607367 L 5.8863642,3.667801 C 6.1480517,3.0639055 5.8663909,2.3592018 5.2423652,2.0975136 5.091391,2.0320919 4.9338904,2.0006386 4.7788278,2.0000096 Z M 11.238472,2.0000096 C 11.084982,2.0006386 10.929054,2.0320919 10.778079,2.0975136 10.174184,2.3592018 9.872,3.0840353 10.133688,3.667801 L 11.019481,5.6607367 C 11.261039,6.2646318 11.945298,6.566424 12.569324,6.3047355 13.173219,6.0430472 13.475403,5.3383437 13.213715,4.7344482 L 12.347973,2.7419055 C 12.13661,2.2738866 11.698942,1.9981224 11.238472,2.0000096 Z M 6.3695591,3.526656 C 6.3494288,3.6273051 6.3091701,3.7282694 6.2689104,3.8490484 L 5.3831168,5.8415911 C 5.0207797,6.6467853 4.0747532,7.0294886 3.2494292,6.6872817 2.4442356,6.3249444 2.0616886,5.4389929 2.3636365,4.6337989 1.9610392,5.1169152 1.8804411,5.8419063 2.182389,6.6672298 2.7258948,8.1769691 4.1150152,8.4786828 5.4637154,7.9351763 L 6.2889612,7.6131773 C 7.4162328,7.1904499 7.9395314,6.1435375 7.6174538,5.0363963 7.396026,4.2915916 6.8325462,3.929253 6.3695591,3.526656 Z M 9.6504927,3.5471003 C 9.1472459,3.9295674 8.6039751,4.2915916 8.3825462,5.0363963 8.0604686,6.1435375 8.5837672,7.1903714 9.7110388,7.6332281 L 10.536285,7.9552282 C 11.905114,8.4786043 13.274105,8.1970209 13.817612,6.6872817 14.119559,5.8619577 14.018831,5.1373597 13.636364,4.6542432 13.938311,5.4594372 13.555765,6.3449952 12.750571,6.7073325 11.945377,7.0495404 10.999272,6.6672288 10.636934,5.8620354 L 9.751141,3.8690998 C 9.7108817,3.7684503 9.670622,3.6678795 9.6504927,3.5471003 Z M 14.340909,5.1574899 C 14.441558,5.7211257 14.401456,6.2644758 14.200158,6.8079822 13.89821,7.6534359 13.314443,8.2373612 12.589768,8.4789194 12.931975,8.7808667 13.354546,8.9416699 13.837663,8.9416699 14.884415,8.9416699 15.75,8.0761633 15.75,7.0092807 15.75,6.1235673 15.146103,5.3789183 14.340909,5.1574899 Z M 1.6590908,5.1775413 C 0.85389672,5.3989696 0.24999998,6.1436192 0.24999998,7.0293315 0.24999998,8.0962151 1.0954556,8.9617217 2.1623378,8.9617217 2.6454544,8.9617217 3.0881548,8.7807881 3.4102324,8.4989702 2.6855576,8.2372827 2.1219204,7.6735663 1.7998429,6.8079822 1.5985443,6.2443464 1.5584415,5.7009174 1.6590908,5.1775413 Z"
     style="fill:#2e3436;fill-opacity:1;stroke-width:0.201298" />
</svg>
